src/assets/images/tech/Java-logo.svg

<svg width="70" height="70" viewBox="0 0 70 70" fill="none" xmlns="http://www.w3.org/2000/svg">
<g clip-path="url(#clip0_209_58)">
<path d="M25.1044 54.5226C25.1044 54.5226 22.2129 56.0317 27.1621 56.5424C33.158 57.1563 36.2224 57.0682 42.8299 55.9459C42.8299 55.9459 44.567 56.9234 46.9931 57.7701C32.1809 63.4675 13.4702 57.4401 25.1044 54.5226ZM23.2944 47.0879C23.2944 47.0879 20.0513 49.2424 25.0042 49.7021C31.4092 50.2952 36.4673 50.3437 45.2198 48.8311C45.2198 48.8311 46.4306 49.9326 48.3342 50.5349C30.4252 55.2348 10.478 50.9056 23.2944 47.0879Z" fill="#5382A1"/>
<path d="M38.553 34.4763C42.2027 38.2475 37.5943 41.6412 37.5943 41.6412C37.5943 41.6412 46.8611 37.3477 42.6053 31.9711C38.6303 26.957 35.582 24.4659 52.0843 15.8765C52.0845 15.8763 26.1811 21.6824 38.553 34.4763Z" fill="#E76F00"/>
<path d="M58.1434 60.0217C58.1434 60.0217 60.2831 61.6042 55.7868 62.8281C47.237 65.1526 20.2016 65.8546 12.6913 62.9209C9.99156 61.8667 15.0544 60.4039 16.647 60.097C18.3079 59.7737 19.257 59.8339 19.257 59.8339C16.2546 57.9357 -0.14938 63.561 10.9246 65.1722C41.1249 69.5677 65.9771 63.1929 58.1434 60.0217ZM26.4948 39.3846C26.4948 39.3846 12.7429 42.316 21.6249 43.3805C25.3752 43.8311 32.8513 43.7292 39.8148 43.2055C45.506 42.7747 51.2208 41.8588 51.2208 41.8588C51.2208 41.8588 49.214 42.6301 47.7622 43.5196C33.7973 46.816 6.81988 45.2824 14.5863 41.9108C21.1545 39.0613 26.4948 39.3846 26.4948 39.3846ZM51.1641 51.7601C65.36 45.1396 58.7966 38.7773 54.2151 39.6346C53.0922 39.8443 52.5915 40.0261 52.5915 40.0261C52.5915 40.0261 53.0085 39.44 53.8043 39.1864C62.8676 36.3267 69.8379 47.6206 50.8786 52.0939C50.8786 52.0939 51.0986 51.9178 51.1641 51.7601Z" fill="#5382A1"/>
<path d="M42.6053 2.00684C42.6053 2.00684 50.4672 9.06489 35.1486 19.9187C22.8646 28.6249 32.3475 33.5891 35.1435 39.261C27.9733 33.4547 22.7113 28.3438 26.2415 23.5868C31.4228 16.604 45.7773 13.2184 42.6053 2.00684Z" fill="#E76F00"/>
<path d="M27.8898 69.7002C41.516 70.483 62.4408 69.2658 62.9361 63.4795C62.9361 63.4795 61.9837 65.6729 51.6747 67.4152C40.0446 69.3793 25.7 69.1502 17.1923 67.8913C17.1927 67.8909 18.9341 69.1848 27.8898 69.7002Z" fill="#5382A1"/>
</g>
<defs>
<clipPath id="clip0_209_58">
<rect width="56" height="68" fill="white" transform="translate(7 2)"/>
</clipPath>
</defs>
</svg>

<svg width="70" height="70" fill="none" xmlns="http://www.w3.org/2000/svg"><g clip-path="url(#a)"><path d="M25.104 54.523s-2.891 1.509 2.058 2.02c5.996.613 9.06.525 15.668-.597 0 0 1.737.977 4.163 1.824-14.812 5.697-33.523-.33-21.889-3.247zm-1.81-7.435s-3.243 2.154 1.71 2.614c6.405.593 11.463.642 20.216-.87 0 0 1.21 1.1 3.114 1.703-17.909 4.7-37.856.37-25.04-3.447z" fill="#5382A1"/><path d="M38.553 34.476c3.65 3.772-.959 7.165-.959 7.165s9.267-4.293 5.011-9.67c-3.975-5.014-7.023-7.505 9.48-16.095 0 0-25.904 5.806-13.532 18.6z" fill="#E76F00"/><path d="M58.143 60.022s2.14 1.582-2.356 2.806c-8.55 2.325-35.585 3.027-43.096.093-2.7-1.054 2.363-2.517 3.956-2.824 1.66-.323 2.61-.263 2.61-.263-3.002-1.898-19.406 3.727-8.332 5.338 30.2 4.396 55.052-1.98 47.218-5.15zM26.495 39.385s-13.752 2.931-4.87 3.995c3.75.451 11.226.35 18.19-.175 5.691-.43 11.406-1.346 11.406-1.346s-2.007.771-3.459 1.66c-13.965 3.297-40.942 1.763-33.176-1.608 6.568-2.85 11.909-2.526 11.909-2.526zm24.67 12.375c14.195-6.62 7.632-12.983 3.05-12.125-1.123.21-1.623.391-1.623.391s.416-.586 1.212-.84c9.064-2.86 16.034 8.435-2.925 12.908 0 0 .22-.176.285-.334z" fill="#5382A1"/><path d="M42.605 2.007s7.862 7.058-7.456 17.912c-12.284 8.706-2.802 13.67-.005 19.342-7.17-5.806-12.433-10.917-8.902-15.674 5.18-6.983 19.535-10.369 16.363-21.58z" fill="#E76F00"/><path d="M27.89 69.7c13.626.783 34.55-.434 35.046-6.22 0 0-.952 2.193-11.261 3.935-11.63 1.964-25.975 1.735-34.483.476 0 0 1.742 1.294 10.698 1.81z" fill="#5382A1"/></g><defs><clipPath id="a"><path fill="#fff" transform="translate(7 2)" d="M0 0h56v68H0z"/></clipPath></defs></svg>
